X:619
T:Pericote (XA 48)
R:Danza
C:Tradicional
S:Msica Tradicional Asturiana, (C) Tello & Tito. Asturies, 2001.
S:http://pagina.de/MusTradAst <telloytito@asturies.org>
N:El Pericote ye la sea d'identid del folclor Llaniscu.
N:La estructura del baille ye una trada de dos muyeres y un home.
N:N'otra dmina poden intervenir una o delles trades segn les qu'hubiesen nel momentu.
N:Cantbenlu delles muyeres que s'acompaaben de panderetes y tambor.
N:Gei, el Pericote billenlu siempres delles trades al son de la gaita y el tambor.
N:Tantu pol ritmu, comu pol so calter, el Pericote ta emparentu col Corri-Corri de Cabrales.
A:Asturies
O:Llanes
Z:Mtodu de Xuacu Amieva 48
M:2/4
L:1/8
Q:1/4=160
K:C
~G2
|: C2 ~E2|.G2 GA|GA GF|.G2 G2|ABAG|.E2 ~EG|F2 ~D2|C2 C2|
|~E2 .G2|GA GF|~E2 D2|EG EF|GA GA|~EB, DF|~E2 D2|[1 C2 ~G2 :|[2 C4|
|~E2 G2|c3 d|
|: cd cB|c2 c2|de dc|A2 Ac|B2 ~G2|.F2 F2|G2 c2|cd cB|
|A2 G2|AB AB|cd cB|A2 Ac|B2 ~G2|F2 ~ED|[1 C2 G2|c3 d :|
|:[2 C2 ~E2|.G2 GA|GA GF|.G2 G2|ABAG|.E2 ~EG|F2 ~D2|C2 C2|
|EE GG|EE GG|FG FD|EG EF|GA GA|~DB, DF|~E2 ~D2|C4 :|
|GB GA|.F2 F2|GA GF|.E2 E2|FG FE|.D2 D2|EF ED|C4|
|AB AG|.FF GA|BA GF|.EE FG|AG FE|DD EF|GF ED|C2 ~G2|C2 .E2|FG ED|CD CB,|C4|
